X: 24518
T: Lucy Farr's
R: reel
M: 4/4
K: Gmajor
|:B2 BA BddB|A2 AG ABBA|B2 BA BddB|AGAB G2 GA:|
|:Bddd eddd|BddB BAAA|Bddd e2 dB|AGAB G2 GA|
Bddd Bddd|BddB c2 Bc|A2 AG AABc|dBAB G2 GA:|

